X:106
T:Ross Castle. HSJJ.108
M:2/4
L:1/16
Q:1/4=100
S:HSJ Jackson,Wyresdale,Lancs.1823
R:.Country-dance
O:England
A:Lancashire
N:This tune is an anagram. Change the bar lines to some sort of triple
N:time to find the solution.
H:1823
Z:vmp.Chris Partington.
K:G
dc|”_Key D in MS”B4A4|G2G2 cBAG|\
FGAB A2dc|B4A4|G2G2 ABcA|B2G2G2:|!
|:dc|B2G2A2D2|G2G2 cBAG|FGAB A2dc|\
B2G2A2D2|G2G2 ABcA|B2G2G2:|!
|:dc|BcdB ABcA|G2G2 cBAG|FGAB A2dc|!
BcdB ABcA|G2G2 ABcA|B2G2G2:|
W:Should be in 12/8 triple time or something.CGP

